X: 1
T: Shinkansen
T: the Bullet Train
C: David Hall (2004?)
R: reel
N: Original tune for Scottish dance by the same name.
N: Devised in honour of the 20th Anniversary of the RSCDS Tokyo
N: Branch and the International Weekend 28-30 January 2005.
Z: 2014 John Chambers <jc:trillian.mit.edu>
M: C|
L: 1/8
K: G
|:\
"G"GDGD "Am"AEAE | "G"GDGD "D7"FEDF |\
"G"GDGD "Am"AEAE | "D7"FEDF "G"G2G2 |\
"G"GDGD "Am"AEAE |
"G"GDGD "D7"FEDF |\
"G"GDGD "Am"AEAE | "D7"FEDF "G"G2c2 ||\
"C"eBeB "Bm"dAdA | "Am"cAcA "G"B2G2 |\
"C"eBeB "Bm"dAdA |
"A7"^cAcA "D7"d2f2 |\
"G/"gdfc "/"eBdA | "/"cABG "/"AFGE |\
"Bm"FGAB "C"EFGA | "D7"DEFD "G"G2G2 :|
